src/xmb/monochrome/Sega - 32X-content.svg

<?xml version="1.0" encoding="UTF-8" standalone="no"?>
<!-- Generator: Adobe Illustrator 16.0.0, SVG Export Plug-In . SVG Version: 6.00 Build 0)  -->

<svg
   xmlns:dc="http://purl.org/dc/elements/1.1/"
   xmlns:cc="http://creativecommons.org/ns#"
   xmlns:rdf="http://www.w3.org/1999/02/22-rdf-syntax-ns#"
   xmlns:svg="http://www.w3.org/2000/svg"
   xmlns="http://www.w3.org/2000/svg"
   xmlns:sodipodi="http://sodipodi.sourceforge.net/DTD/sodipodi-0.dtd"
   xmlns:inkscape="http://www.inkscape.org/namespaces/inkscape"
   version="1.1"
   id="svg2"
   inkscape:export-filename="/home/kivutar/Bureau/lakka-menu/reload.png"
   inkscape:export-xdpi="90"
   inkscape:version="0.48.5 r10040"
   inkscape:export-ydpi="90"
   sodipodi:docname="Sega - 32X-content.svg"
   x="0px"
   y="0px"
   width="64px"
   height="64px"
   viewBox="0 128 64 64"
   enable-background="new 0 128 64 64"
   xml:space="preserve"><metadata
     id="metadata8"><rdf:RDF><cc:Work
         rdf:about=""><dc:format>image/svg+xml</dc:format><dc:type
           rdf:resource="http://purl.org/dc/dcmitype/StillImage" /></cc:Work></rdf:RDF></metadata><defs
     id="defs6" /><sodipodi:namedview
     pagecolor="#808080"
     bordercolor="#666666"
     borderopacity="1"
     objecttolerance="10"
     gridtolerance="10"
     guidetolerance="10"
     inkscape:pageopacity="0"
     inkscape:pageshadow="2"
     inkscape:window-width="1440"
     inkscape:window-height="836"
     id="namedview4"
     showgrid="true"
     inkscape:zoom="9.53125"
     inkscape:cx="36.397378"
     inkscape:cy="38.560529"
     inkscape:window-x="0"
     inkscape:window-y="27"
     inkscape:window-maximized="1"
     inkscape:current-layer="svg2"><inkscape:grid
       type="xygrid"
       id="grid2985"
       empspacing="4"
       visible="true"
       enabled="true"
       snapvisiblegridlinesonly="true" /></sodipodi:namedview><path
     style="fill:#ffffff"
     d="M 8 15 C 6.892 15 6 15.892 6 17 C 6.5775133 17 7.1576045 17.03823 7.71875 17.28125 C 8.2798955 17.52417 8.8269755 18.10066 8.96875 18.8125 A 1.0001 1.0001 0 0 1 9 18.84375 L 13 42.84375 L 12.96875 42.84375 C 13.073102 43.32968 13.07544 43.81589 12.875 44.40625 C 12.66657 45.02015 12.127092 45.74394 11.25 45.96875 A 1.0001 1.0001 0 0 1 11.1875 45.96875 L 6.1875 46.96875 A 1.0001 1.0001 0 0 1 6 47 L 6 48 C 6 48.464 6.538 49 7 49 L 57 49 C 57.463 49 58 48.464 58 48 L 58 47 A 1.0001 1.0001 0 0 1 57.8125 46.96875 L 52.8125 45.96875 A 1.0001 1.0001 0 0 1 52.75 45.96875 C 51.872908 45.74394 51.33343 45.02015 51.125 44.40625 C 50.92456 43.81589 50.926898 43.32968 51.03125 42.84375 L 51 42.84375 L 55 18.84375 A 1.0001 1.0001 0 0 1 55.03125 18.8125 C 55.173024 18.10066 55.720104 17.52417 56.28125 17.28125 C 56.842396 17.0383 57.422487 17 58 17 C 58 15.892 57.108 15 56 15 L 52.40625 15 C 52.552154 15.173996 52.67344 15.346882 52.78125 15.5625 C 53.02551 16.05101 53 16.5 53 17 A 1.0001 1.0001 0 0 1 53 17.09375 L 51 38.09375 A 1.0001 1.0001 0 0 1 50.96875 38.25 C 50.633149 39.5924 49.610759 40.57632 48.34375 41.21875 C 47.076741 41.86118 45.528943 42.24108 43.78125 42.5 C 40.285864 43.0178 36 43 32 43 C 28 43 23.714136 43.01789 20.21875 42.5 C 18.471057 42.24108 16.923259 41.86118 15.65625 41.21875 C 14.389241 40.57632 13.366851 39.5924 13.03125 38.25 A 1.0001 1.0001 0 0 1 13 38.09375 L 11 17.09375 A 1.0001 1.0001 0 0 1 11 17 C 11 16.5 10.974493 16.05101 11.21875 15.5625 C 11.32656 15.346882 11.447846 15.173996 11.59375 15 L 8 15 z M 14.4375 15 L 13.71875 15.71875 C 13.21875 16.21875 13.03695 16.426 13.03125 16.4375 C 13.02646 16.44708 13.0033 16.60656 13 16.90625 L 13 16.9375 C 12.999694 16.9822 13 16.9446 13 17 L 14.96875 37.75 C 14.97212 37.7634 14.9964 37.76785 15 37.78125 C 15.173588 38.41999 15.63028 38.93358 16.5625 39.40625 C 17.514241 39.88882 18.903943 40.25892 20.53125 40.5 C 23.785864 40.9822 28 41 32 41 C 36 41 40.214136 40.98216 43.46875 40.5 C 45.096057 40.25892 46.485759 39.88882 47.4375 39.40625 C 48.36972 38.93358 48.826412 38.41999 49 37.78125 L 49.03125 37.75 L 51 17 L 51 16.9375 C 50.999847 16.9153 51.000219 16.92615 51 16.90625 C 50.99671 16.60656 50.97355 16.4475 50.96875 16.4375 C 50.963007 16.42601 50.78125 16.21875 50.28125 15.71875 L 49.5625 15 L 14.4375 15 z M 6 19 L 6 31 L 6 45 L 10.75 44.03125 C 10.87291 43.99975 10.89936 43.95438 10.96875 43.75 C 11.03815 43.54562 11.02325 43.18485 11.03125 43.21875 A 1.0001 1.0001 0 0 1 11 43.15625 L 7 19.1875 C 7.0007001 19.1855 6.9992583 19.15724 7 19.15625 C 7.005192 19.14935 7.0116992 19.1706 6.90625 19.125 C 6.7556084 19.0598 6.4224867 19 6 19 z M 58 19 C 57.577513 19 57.244392 19.05969 57.09375 19.125 C 56.9883 19.1706 56.9948 19.14925 57 19.15625 L 57 19.1875 L 53 43.15625 A 1.0001 1.0001 0 0 1 52.96875 43.21875 C 52.97676 43.18488 52.96186 43.54562 53.03125 43.75 C 53.10064 43.95435 53.127092 43.99975 53.25 44.03125 L 58 45 L 58 31 L 58 19 z M 19.5 45 C 19.777 45 20 45.223 20 45.5 L 20 47.5 C 20 47.777 19.777 48 19.5 48 C 19.223 48 19 47.777 19 47.5 L 19 45.5 C 19 45.223 19.223 45 19.5 45 z M 24.5 45 C 24.777 45 25 45.223 25 45.5 L 25 47.5 C 25 47.777 24.777 48 24.5 48 C 24.223 48 24 47.777 24 47.5 L 24 45.5 C 24 45.223 24.223 45 24.5 45 z M 29.5 45 C 29.777 45 30 45.223 30 45.5 L 30 47.5 C 30 47.777 29.777 48 29.5 48 C 29.223 48 29 47.777 29 47.5 L 29 45.5 C 29 45.223 29.223 45 29.5 45 z M 34.5 45 C 34.777 45 35 45.223 35 45.5 L 35 47.5 C 35 47.777 34.777 48 34.5 48 C 34.223 48 34 47.777 34 47.5 L 34 45.5 C 34 45.223 34.223 45 34.5 45 z M 39.5 45 C 39.777 45 40 45.223 40 45.5 L 40 47.5 C 40 47.777 39.777 48 39.5 48 C 39.223 48 39 47.777 39 47.5 L 39 45.5 C 39 45.223 39.223 45 39.5 45 z M 44.5 45 C 44.777 45 45 45.223 45 45.5 L 45 47.5 C 45 47.777 44.777 48 44.5 48 C 44.223 48 44 47.777 44 47.5 L 44 45.5 C 44 45.223 44.223 45 44.5 45 z "
     transform="translate(0,128)"
     id="Megadrive_3_" /></svg>

<svg xmlns="http://www.w3.org/2000/svg" xml:space="preserve" width="64" height="64" viewBox="0 128 64 64"><path d="M8 15c-1.108 0-2 .892-2 2 .578 0 1.158.038 1.719.281.56.243 1.108.82 1.25 1.532l.031.03 4 24h-.031c.104.487.106.973-.094 1.563-.208.614-.748 1.338-1.625 1.563h-.062l-5 1A1 1 0 0 1 6 47v1c0 .464.538 1 1 1h50c.463 0 1-.536 1-1v-1a1 1 0 0 1-.187-.031l-5-1h-.063c-.877-.225-1.417-.949-1.625-1.563a2.8 2.8 0 0 1-.094-1.562H51l4-24 .031-.032c.142-.711.69-1.288 1.25-1.53C56.842 17.037 57.422 17 58 17c0-1.108-.892-2-2-2h-3.594c.146.174.267.347.375.563.245.488.219.937.219 1.437a1 1 0 0 1 0 .094l-2 21a1 1 0 0 1-.031.156c-.336 1.342-1.358 2.326-2.625 2.969S45.529 42.24 43.78 42.5c-3.494.518-7.78.5-11.78.5s-8.286.018-11.781-.5c-1.748-.259-3.296-.639-4.563-1.281-1.267-.643-2.29-1.627-2.625-2.969a1 1 0 0 1-.031-.156l-2-21A1 1 0 0 1 11 17c0-.5-.026-.949.219-1.437a2.8 2.8 0 0 1 .375-.563zm6.438 0-.72.719c-.5.5-.681.707-.687.719a3 3 0 0 0-.031.468V17l1.969 20.75c.003.013.027.018.031.031.174.639.63 1.153 1.563 1.625.951.483 2.34.853 3.968 1.094C23.786 40.982 28 41 32 41s8.214-.018 11.469-.5c1.627-.241 3.017-.611 3.968-1.094.933-.472 1.39-.986 1.563-1.625l.031-.031L51 17v-.094a3 3 0 0 0-.031-.468c-.006-.012-.188-.22-.688-.72L49.563 15zM6 19v26l4.75-.969c.123-.031.15-.077.219-.281.07-.204.054-.565.062-.531L11 43.156 7 19.188v-.032c.005-.007.012.015-.094-.031C6.756 19.06 6.422 19 6 19m52 0c-.422 0-.756.06-.906.125-.106.046-.1.024-.094.031v.032l-4 23.968-.031.063c.008-.034-.007.327.062.531.07.204.096.25.219.281L58 45zM19.5 45c.277 0 .5.223.5.5v2a.499.499 0 1 1-1 0v-2c0-.277.223-.5.5-.5m5 0c.277 0 .5.223.5.5v2a.499.499 0 1 1-1 0v-2c0-.277.223-.5.5-.5m5 0c.277 0 .5.223.5.5v2a.499.499 0 1 1-1 0v-2c0-.277.223-.5.5-.5m5 0c.277 0 .5.223.5.5v2a.499.499 0 1 1-1 0v-2c0-.277.223-.5.5-.5m5 0c.277 0 .5.223.5.5v2a.499.499 0 1 1-1 0v-2c0-.277.223-.5.5-.5m5 0c.277 0 .5.223.5.5v2a.499.499 0 1 1-1 0v-2c0-.277.223-.5.5-.5" style="fill:#fff" transform="translate(0 128)"/></svg>
